X: 101
M: 6/8
L: 1/8
K: G
!segno!BAB |\
"2f"dB"^en rondeau"c |\
dBc dcB | !+!A2G dBc | dBc dcB | !+!A3 A2B |\
cAB cAB | c3 edc | Bcd dcB | !+!A2 !segno!y|]

